universal/android/bell.svg

<svg width="24" height="24" viewBox="0 0 24 24" fill="none" xmlns="http://www.w3.org/2000/svg">
<path fill-rule="evenodd" clip-rule="evenodd" d="M12 4.21503C9.77654 4.21503 7.88 6.08403 7.88 8.50724V11.1589C7.88 13.0098 6.67121 14.5784 5 15.1183V15.7605H19V15.1183C17.3288 14.5784 16.12 13.0098 16.12 11.1589V8.50724C16.12 6.08403 14.2235 4.21503 12 4.21503ZM5.88 8.50724C5.88 5.03214 8.62002 2.21503 12 2.21503C15.38 2.21503 18.12 5.03214 18.12 8.50724V11.1589C18.12 12.3519 19.0871 13.3189 20.28 13.3189C20.6776 13.3189 21 13.6503 21 14.0592V17.0202C21 17.4291 20.6776 17.7605 20.28 17.7605H3.72C3.32236 17.7605 3 17.4291 3 17.0202V14.0592C3 13.6503 3.32236 13.3189 3.72 13.3189C4.91294 13.3189 5.88 12.3519 5.88 11.1589V8.50724Z" fill="black"/>
<path fill-rule="evenodd" clip-rule="evenodd" d="M9.69392 18.4302C10.9675 19.7038 13.0325 19.7038 14.3061 18.4302L15.7203 19.8444C13.6656 21.8991 10.3344 21.8991 8.2797 19.8444L9.69392 18.4302Z" fill="black"/>
</svg>

<svg xmlns="http://www.w3.org/2000/svg" viewBox="0 0 24 24"><path fill-rule="evenodd" clip-rule="evenodd" d="M12 4.215c-2.223 0-4.12 1.869-4.12 4.292v2.652c0 1.85-1.209 3.42-2.88 3.96v.642h14v-.643a4.162 4.162 0 01-2.88-3.96v-2.65c0-2.424-1.897-4.293-4.12-4.293zM5.88 8.507c0-3.475 2.74-6.292 6.12-6.292s6.12 2.817 6.12 6.292v2.652a2.16 2.16 0 002.16 2.16.73.73 0 01.72.74v2.961a.73.73 0 01-.72.74H3.72a.73.73 0 01-.72-.74v-2.96a.73.73 0 01.72-.741 2.16 2.16 0 002.16-2.16V8.507zM9.694 18.43a3.261 3.261 0 004.612 0l1.414 1.414a5.261 5.261 0 01-7.44 0l1.414-1.414z"/></svg>
